X: 1
T: Keep It Up
T: As a thoiseach
N: pipe reel Fraser p.56
D: Ed Pearlman on Boston Hospitality
Z: John Chambers <jc@trillian.mit.edu>
M: C
L: 1/8
K: EDorian
|: c | "Em"dEBE dEBc | dEBE "D"FDDc | "Em"dEBE GBeB | "D"cAdA FDD :|
[| f | "Em"gebe geef | gebe "D"fddf | "Em"gebe gefd | "D"cAdA FDD ||
|| f | "Em"gebe geef | gebe "D"fddf | "Em"ebgb faeg | "D"fcdA FDD |]
